image/fb.svg

<svg fill="none" height="109" viewBox="0 0 117 109" width="117" xmlns="http://www.w3.org/2000/svg"><path d="m76.0598 20c.7159.4188.9402 1.0818.9402 1.8757v9.0907c0 1.5878-.5089 2.1025-2.0961 2.1112-1.984.0175-3.968.0262-5.9433.0262-.4572 0-.9057.0785-1.337.1832-1.3629.3228-2.1997 1.2738-2.3635 2.6871-.2847 2.5213-.0691 5.0513-.1294 7.5726-.0173.5148.3364.4624.6642.4624h8.6604.647c.8108.0262 1.268.4101 1.4319 1.2301.0604.2705.0776.5584.0776.8463v9.6752c0 1.6314-.5089 2.1549-2.1306 2.1549-2.8466 0-5.6931.0174-8.5311-.0088-.6642 0-.8367.2094-.8281.8637.0173 8.7156.0173 17.4398.0087 26.1553 0 .2617.0086.5235-.0173.7852-.0949.7677-.6211 1.2825-1.3888 1.2825-3.7695.0087-7.5391.0087-11.3172 0-.7332 0-1.1732-.4275-1.3457-1.1691-.0862-.3839-.0862-.7764-.0862-1.169 0-8.5672 0-17.1345 0-25.6929 0-.6863-.348-1.0295-1.0438-1.0295-2.1565 0-4.313 0-6.4608 0-.2157 0-.4313 0-.647 0-1.3111-.0785-1.8114-.602-1.8201-1.9368-.0086-1.5267 0-3.0535 0-4.5802 0-1.8321 0-3.6642 0-5.4963 0-1.3697.5348-1.8931 1.8719-1.9019 2.4584 0 4.9168-.0174 7.3665.0088.578 0 .7419-.192.7333-.7503-.0259-2.1113-.0346-4.2313 0-6.3425.0431-2.8878.3967-5.7319 1.6303-8.3928 1.9753-4.2923 5.2791-6.9357 9.8077-8.0612.785-.2006 1.5958-.3228 2.398-.4798z" fill="#ff4d00"/></svg>

<svg width="117" height="109" viewBox="0 0 117 109" fill="none" xmlns="http://www.w3.org/2000/svg">
<path d="M76.0598 20C76.7757 20.4188 77 21.0818 77 21.8757C77 24.903 77 27.9391 77 30.9664C77 32.5542 76.4911 33.0689 74.9039 33.0776C72.9199 33.0951 70.9359 33.1038 68.9606 33.1038C68.5034 33.1038 68.0549 33.1823 67.6236 33.287C66.2607 33.6098 65.4239 34.5608 65.2601 35.9741C64.9754 38.4954 65.191 41.0254 65.1307 43.5467C65.1134 44.0615 65.4671 44.0091 65.7949 44.0091C68.6846 44.0091 71.5743 44.0091 74.4553 44.0091C74.671 44.0091 74.8866 44.0091 75.1023 44.0091C75.9131 44.0353 76.3703 44.4192 76.5342 45.2392C76.5946 45.5097 76.6118 45.7976 76.6118 46.0855C76.6118 49.3135 76.6118 52.5327 76.6118 55.7607C76.6118 57.3921 76.1029 57.9156 74.4812 57.9156C71.6346 57.9156 68.7881 57.933 65.9501 57.9068C65.2859 57.9068 65.1134 58.1162 65.122 58.7705C65.1393 67.4861 65.1393 76.2103 65.1307 84.9258C65.1307 85.1875 65.1393 85.4493 65.1134 85.711C65.0185 86.4787 64.4923 86.9935 63.7246 86.9935C59.9551 87.0022 56.1855 87.0022 52.4074 86.9935C51.6742 86.9935 51.2342 86.566 51.0617 85.8244C50.9755 85.4405 50.9755 85.048 50.9755 84.6554C50.9755 76.0882 50.9755 67.5209 50.9755 58.9625C50.9755 58.2762 50.6275 57.933 49.9317 57.933C47.7752 57.933 45.6187 57.933 43.4709 57.933C43.2552 57.933 43.0396 57.933 42.8239 57.933C41.5128 57.8545 41.0125 57.331 41.0038 55.9962C40.9952 54.4695 41.0038 52.9427 41.0038 51.416C41.0038 49.5839 41.0038 47.7518 41.0038 45.9197C41.0038 44.55 41.5386 44.0266 42.8757 44.0178C45.3341 44.0178 47.7925 44.0004 50.2422 44.0266C50.8202 44.0266 50.9841 43.8346 50.9755 43.2763C50.9496 41.165 50.9409 39.045 50.9755 36.9338C51.0186 34.046 51.3722 31.2019 52.6058 28.541C54.5811 24.2487 57.8849 21.6053 62.4135 20.4798C63.1985 20.2792 64.0093 20.157 64.8115 20H76.0598Z" fill="#FF4D00"/>
</svg>
